src/assets/images/partners-color-logo-5.svg

<svg width="115" height="27" viewBox="0 0 115 27" fill="none" xmlns="http://www.w3.org/2000/svg">
<path d="M0.771484 26.6188C0.948896 25.8341 1.10074 24.9022 1.22702 23.824C1.35253 22.7457 1.45401 21.6179 1.53071 20.4405C1.60663 19.2615 1.64537 18.1135 1.64537 16.9981V9.62068C1.64537 8.50524 1.60663 7.35881 1.53071 6.1814C1.45401 5.00244 1.35253 3.87306 1.22702 2.7948C1.10074 1.71654 0.948896 0.785456 0.771484 0H5.52517C8.31417 0 10.4942 1.14178 12.0669 3.42378C13.6388 5.70424 14.4252 8.97465 14.4252 13.2335C14.4252 17.5178 13.6388 20.82 12.0669 23.1392C10.4942 25.4592 8.31417 26.6188 5.52517 26.6188H0.771484ZM5.4477 22.8913H5.90634C7.14744 22.8913 8.21191 22.1376 9.09819 20.6295C9.98602 19.1221 10.4307 16.6565 10.4307 13.2335C10.4307 10.9515 10.2208 9.11253 9.80164 7.71823C9.38406 6.32393 8.83246 5.31074 8.14683 4.67866C7.46275 4.04502 6.70275 3.72743 5.86605 3.72743H5.4477V22.8913Z" fill="#3E28FE"/>
<path d="M21.3059 27C19.7603 27 18.4549 26.2022 17.3889 24.6049C16.3244 23.0061 15.793 20.5211 15.793 17.15C15.793 13.7526 16.3244 11.249 17.3889 9.6394C18.4549 8.03053 19.7603 7.22571 21.3059 7.22571C22.8778 7.22571 24.1832 8.03053 25.2229 9.6394C26.2641 11.249 26.7847 13.7526 26.7847 17.15C26.7847 20.5211 26.2641 23.0061 25.2229 24.6049C24.1832 26.2022 22.8778 27 21.3059 27ZM21.3059 23.6909C22.0163 23.6909 22.5361 23.1145 22.8646 21.9619C23.1947 20.8078 23.3604 19.2035 23.3604 17.15C23.3604 15.0454 23.1947 13.4164 22.8646 12.2638C22.5361 11.1112 22.0163 10.5349 21.3059 10.5349C20.597 10.5349 20.0772 11.1112 19.7471 12.2638C19.4163 13.4164 19.2513 15.0454 19.2513 17.15C19.2513 19.2035 19.4163 20.8078 19.7471 21.9619C20.0772 23.1145 20.597 23.6909 21.3059 23.6909Z" fill="#3E28FE"/>
<path d="M33.5871 27C32.0416 27 30.7362 26.2022 29.6701 24.6049C28.6057 23.0061 28.0742 20.5211 28.0742 17.15C28.0742 13.7526 28.6057 11.249 29.6701 9.6394C30.7362 8.03053 32.0416 7.22571 33.5871 7.22571C35.159 7.22571 36.4645 8.03053 37.5041 9.6394C38.5454 11.249 39.066 13.7526 39.066 17.15C39.066 20.5211 38.5454 23.0061 37.5041 24.6049C36.4645 26.2022 35.159 27 33.5871 27ZM33.5871 23.6909C34.2976 23.6909 34.8174 23.1145 35.1459 21.9619C35.4759 20.8078 35.6417 19.2035 35.6417 17.15C35.6417 15.0454 35.4759 13.4164 35.1459 12.2638C34.8174 11.1112 34.2976 10.5349 33.5871 10.5349C32.8783 10.5349 32.3584 11.1112 32.0284 12.2638C31.6976 13.4164 31.5326 15.0454 31.5326 17.15C31.5326 19.2035 31.6976 20.8078 32.0284 21.9619C32.3584 23.1145 32.8783 23.6909 33.5871 23.6909Z" fill="#3E28FE"/>
<path d="M44.6929 26.9999C43.4758 26.9999 42.4617 26.1958 41.6497 24.5862C40.8378 22.975 40.4319 20.4962 40.4319 17.1499C40.4319 13.8036 40.8301 11.314 41.6281 9.67955C42.4276 8.04357 43.4487 7.22558 44.6929 7.22558C45.5024 7.22558 46.2245 7.59352 46.859 8.32863C47.4927 9.06451 47.9753 10.2179 48.3062 11.7896H48.5727V9.54322C48.5727 8.42778 48.5401 7.28755 48.4766 6.12253C48.4123 4.95597 48.317 3.84053 48.1915 2.77621C48.0652 1.71034 47.9258 0.785456 47.7731 0H52.8677C52.7166 0.785456 52.5772 1.71034 52.4494 2.77621C52.3231 3.84053 52.2278 4.95597 52.1643 6.12253C52.1023 7.28755 52.0713 8.42778 52.0713 9.54322V17.0353C52.0713 18.1507 52.1023 19.2987 52.1643 20.4776C52.2278 21.6574 52.3231 22.7798 52.4494 23.8457C52.5772 24.91 52.7166 25.8341 52.8677 26.6188H47.9622C48.2411 25.9851 48.4123 25.3701 48.4766 24.7752C48.5401 24.1787 48.5727 23.449 48.5727 22.5877V22.2469H48.3433C48.0125 23.8689 47.5299 25.0664 46.8962 25.8411C46.264 26.6141 45.5296 26.9999 44.6929 26.9999ZM46.1741 23.195C47.0108 23.195 47.5942 22.6249 47.925 21.4846C48.255 20.3444 48.4208 18.8998 48.4208 17.1499C48.4208 15.3513 48.2612 13.881 47.9436 12.7408C47.6275 11.599 47.0372 11.0274 46.1741 11.0274C45.3886 11.0274 44.8122 11.5665 44.4449 12.6448C44.0769 13.7215 43.8933 15.2227 43.8933 17.1499C43.8933 19.0012 44.0769 20.4714 44.4449 21.5621C44.8122 22.6512 45.3886 23.195 46.1741 23.195Z" fill="#3E28FE"/>
<path d="M55.1465 26.6188C55.3239 25.8341 55.4695 24.91 55.5834 23.8457C55.6989 22.7798 55.788 21.6574 55.8499 20.4776C55.9135 19.2987 55.946 18.1507 55.946 17.0353V9.54322C55.946 8.42778 55.9135 7.28755 55.8499 6.12253C55.788 4.95597 55.6989 3.84053 55.5834 2.77621C55.4695 1.71034 55.3239 0.785456 55.1465 0H60.207C60.0536 0.785456 59.9203 1.71034 59.8072 2.77621C59.6933 3.84053 59.598 4.95597 59.5221 6.12253C59.4454 7.28755 59.4075 8.42778 59.4075 9.54322V17.0353C59.4075 18.1507 59.4454 19.2987 59.5221 20.4776C59.598 21.6574 59.6933 22.7798 59.8072 23.8457C59.9203 24.91 60.0536 25.8341 60.207 26.6188H55.1465Z" fill="#3E28FE"/>
<path d="M68.3076 27C66.5327 27 65.0236 26.151 63.7802 24.4531C62.5383 22.7536 61.9177 20.2175 61.9177 16.8464C61.9177 14.7666 62.1765 13.0105 62.6955 11.579C63.2162 10.1475 63.8948 9.06464 64.7315 8.32876C65.5682 7.59365 66.4553 7.22571 67.3935 7.22571C68.8639 7.22571 70.0306 7.75864 70.8921 8.82451C71.7551 9.88882 72.1874 11.6495 72.1874 14.1074C72.1874 15.1469 72.0154 16.1229 71.673 17.0354C71.3298 17.9487 70.8735 18.6838 70.3033 19.2415C69.7331 19.7992 69.08 20.0781 68.3448 20.0781C67.6088 20.0781 67.0069 19.9007 66.5382 19.5451C66.0687 19.1904 65.7201 18.8604 65.4907 18.5567L65.3389 18.5939C65.39 20.1664 65.7394 21.3965 66.3863 22.2842C67.0324 23.1703 67.7994 23.6134 68.6857 23.6134C69.2698 23.6134 69.7587 23.4941 70.1515 23.254C70.5435 23.0123 70.9804 22.5746 71.4623 21.9402L71.7288 25.4415C71.2221 26.0488 70.7093 26.4601 70.1886 26.6747C69.6696 26.8916 69.0428 27 68.3076 27ZM67.0898 17.9092C67.6228 17.9092 68.0659 17.5552 68.4192 16.8464C68.774 16.1361 68.9654 15.2615 68.9925 14.222C68.9925 12.8525 68.8453 11.8889 68.5524 11.3312C68.2611 10.7734 67.8366 10.4946 67.2788 10.4946C66.7473 10.4946 66.291 10.9578 65.9091 11.8827C65.5287 12.8083 65.3141 14.1461 65.2645 15.8952C65.39 16.5296 65.6178 17.0245 65.9463 17.3793C66.2763 17.7325 66.6575 17.9092 67.0898 17.9092Z" fill="#3E28FE"/>
<path d="M73.8206 26.6188C73.998 25.8341 74.1498 24.9022 74.2761 23.824C74.4016 22.7457 74.5031 21.6179 74.5798 20.4405C74.6557 19.2615 74.6944 18.1135 74.6944 16.9981V9.62068C74.6944 8.50524 74.6557 7.35881 74.5798 6.1814C74.5031 5.00244 74.4016 3.87306 74.2761 2.7948C74.1498 1.71654 73.998 0.785456 73.8206 0H83.8609L84.4311 4.37191C84.1274 4.24642 83.7153 4.12636 83.1947 4.01249C82.6741 3.89707 81.9706 3.83898 81.0843 3.83898H78.4968V11.4828H79.4481C80.336 11.4828 81.0394 11.4643 81.5585 11.4271C82.0791 11.3899 82.5292 11.3333 82.9096 11.2567V15.5139C82.0977 15.3884 80.855 15.3249 79.1816 15.3249H78.4968V17.3792C78.4968 19.0012 78.5789 20.662 78.7447 22.3615C78.9097 24.0594 79.1197 25.4785 79.3738 26.6188H73.8206Z" fill="#3E28FE"/>
<path d="M90.7042 26.9995C89.4871 26.9995 88.511 26.4681 87.7758 25.4038C87.0398 24.3379 86.6726 22.4494 86.6726 19.7367V15.2099C86.6726 14.3485 86.64 13.443 86.5765 12.4926C86.5122 11.5406 86.4231 10.6335 86.31 9.77214C86.1961 8.91077 86.0505 8.18883 85.873 7.60632H90.9707C90.8173 8.18883 90.6771 8.91077 90.5493 9.77214C90.423 10.6335 90.3277 11.5406 90.2642 12.4926C90.2022 13.443 90.1712 14.3485 90.1712 15.2099V18.8227C90.1712 21.7128 90.8421 23.1574 92.1855 23.1574C92.9207 23.1574 93.5226 22.7082 93.9921 21.8096C94.4608 20.9095 94.6956 19.7484 94.6956 18.327V15.2099C94.6956 14.3485 94.663 13.443 94.5995 12.4926C94.5375 11.5406 94.4492 10.6335 94.3361 9.77214C94.2222 8.91077 94.0766 8.18883 93.8992 7.60632H98.9937C98.8427 8.18883 98.7032 8.91077 98.5754 9.77214C98.4491 10.6335 98.3538 11.5406 98.2903 12.4926C98.2283 13.443 98.1973 14.3485 98.1973 15.2099V19.052C98.1973 19.8886 98.2283 20.7825 98.2903 21.7321C98.3538 22.6826 98.4491 23.5819 98.5754 24.4309C98.7032 25.2799 98.8427 26.0096 98.9937 26.6184H94.0138C94.2927 26.0359 94.4756 25.4658 94.5623 24.9081C94.6506 24.3503 94.6956 23.6152 94.6956 22.702V22.513H94.5065C94.2276 24.0583 93.7582 25.1923 93.0996 25.915C92.4404 26.6378 91.6416 26.9995 90.7042 26.9995Z" fill="#3E28FE"/>
<path d="M101.199 26.6189C101.377 26.01 101.522 25.2804 101.636 24.4314C101.749 23.5824 101.838 22.6831 101.903 21.7326C101.966 20.783 101.999 19.8759 101.999 19.0122V15.2104C101.999 14.349 101.966 13.4435 101.903 12.4931C101.838 11.5411 101.749 10.634 101.636 9.77263C101.522 8.91126 101.377 8.18933 101.199 7.60682H106.219C105.965 8.16454 105.787 8.72845 105.686 9.29857C105.585 9.86868 105.535 10.6108 105.535 11.5233V11.7123H105.724C106.002 10.1654 106.471 9.03133 107.13 8.31016C107.791 7.58745 108.591 7.22571 109.529 7.22571C110.721 7.22571 111.69 7.75864 112.439 8.82451C113.186 9.88882 113.561 11.7889 113.561 14.5256V19.0122C113.561 19.8759 113.592 20.783 113.654 21.7326C113.717 22.6831 113.812 23.5824 113.939 24.4314C114.067 25.2804 114.206 26.01 114.357 26.6189H109.225C109.4 26.01 109.545 25.2804 109.659 24.4314C109.775 23.5824 109.864 22.6831 109.926 21.7326C109.989 20.783 110.022 19.8759 110.022 19.0122V15.4397C110.022 12.5233 109.35 11.0647 108.007 11.0647C107.271 11.0647 106.676 11.5155 106.219 12.4156C105.762 13.3165 105.535 14.4761 105.535 15.8952V19.0122C105.535 19.8759 105.566 20.783 105.628 21.7326C105.691 22.6831 105.786 23.5824 105.913 24.4314C106.04 25.2804 106.181 26.01 106.334 26.6189H101.199Z" fill="#3E28FE"/>
</svg>

<svg xmlns="http://www.w3.org/2000/svg" width="115" height="27" fill="none" viewBox="0 0 115 27"><path fill="#3e28fe" d="M.771 26.619q.267-1.178.456-2.795t.304-3.384q.114-1.768.114-3.442V9.621a54 54 0 0 0-.114-3.44 67 67 0 0 0-.304-3.386A27 27 0 0 0 .771 0h4.754q4.184 0 6.542 3.424 2.358 3.42 2.358 9.81 0 6.426-2.358 9.905-2.359 3.48-6.542 3.48zm4.677-3.728h.458q1.862 0 3.192-2.261 1.332-2.262 1.333-7.396 0-3.424-.63-5.516-.626-2.09-1.654-3.04-1.026-.95-2.281-.95h-.418zM21.306 27q-2.318 0-3.917-2.395-1.597-2.398-1.596-7.455 0-5.096 1.596-7.51 1.598-2.415 3.917-2.414 2.357 0 3.917 2.413 1.562 2.415 1.562 7.511 0 5.057-1.562 7.455Q23.663 27 21.306 27m0-3.31q1.065 0 1.559-1.728.495-1.732.495-4.812 0-3.158-.495-4.886-.494-1.73-1.56-1.73-1.062 0-1.558 1.73-.495 1.728-.496 4.886 0 3.08.496 4.812.495 1.729 1.559 1.729M33.587 27q-2.317 0-3.917-2.395-1.596-2.398-1.596-7.455 0-5.096 1.596-7.51 1.6-2.415 3.917-2.414 2.358 0 3.917 2.413 1.562 2.415 1.562 7.511 0 5.057-1.562 7.455Q35.944 27 33.587 27m0-3.31q1.065 0 1.559-1.728.496-1.732.496-4.812 0-3.158-.496-4.886-.493-1.73-1.559-1.73-1.064 0-1.559 1.73-.495 1.728-.495 4.886 0 3.08.495 4.812.495 1.729 1.56 1.729M44.693 27q-1.825 0-3.043-2.414-1.218-2.417-1.218-7.436t1.196-7.47q1.199-2.454 3.065-2.454 1.215 0 2.166 1.103.95 1.104 1.447 3.46h.267V9.544q0-1.672-.096-3.42a54 54 0 0 0-.285-3.347A39 39 0 0 0 47.773 0h5.095a40 40 0 0 0-.419 2.776 53 53 0 0 0-.285 3.347 64 64 0 0 0-.093 3.42v7.492q0 1.674.093 3.443.097 1.77.285 3.368a40 40 0 0 0 .419 2.773h-4.906a6.3 6.3 0 0 0 .515-1.844q.095-.895.096-2.187v-.341h-.23q-.496 2.433-1.447 3.594-.948 1.16-2.203 1.159m1.481-3.805q1.255 0 1.751-1.71t.496-4.335q0-2.698-.477-4.41-.475-1.712-1.77-1.713-1.178 0-1.73 1.618-.55 1.615-.55 4.505 0 2.776.55 4.412.552 1.634 1.73 1.633M55.147 26.619q.265-1.177.436-2.773.174-1.6.267-3.368.095-1.77.096-3.443V9.543q0-1.672-.096-3.42a61 61 0 0 0-.267-3.347A25 25 0 0 0 55.147 0h5.06a33 33 0 0 0-.4 2.776 81 81 0 0 0-.285 3.347 52 52 0 0 0-.114 3.42v7.492q0 1.674.114 3.443t.285 3.368q.17 1.596.4 2.773zM68.308 27q-2.662 0-4.528-2.547-1.863-2.55-1.862-7.607-.001-3.12.778-5.267.78-2.146 2.035-3.25 1.255-1.103 2.663-1.103 2.206 0 3.498 1.599 1.295 1.596 1.295 5.282 0 1.56-.514 2.928-.515 1.37-1.37 2.206-.855.837-1.958.837-1.104 0-1.807-.533-.704-.533-1.047-.988l-.152.037q.077 2.358 1.047 3.69.97 1.33 2.3 1.33.876 0 1.465-.36.589-.363 1.311-1.314l.267 3.502q-.76.91-1.54 1.233-.78.325-1.881.325m-1.218-9.09q.8 0 1.33-1.064.531-1.065.573-2.624-.001-2.055-.44-2.89-.437-.838-1.274-.837-.797 0-1.37 1.388-.57 1.388-.645 4.012.19.953.682 1.484.495.53 1.144.53M73.82 26.619q.267-1.178.456-2.795t.304-3.384q.114-1.768.114-3.442V9.621q0-1.674-.114-3.44a67 67 0 0 0-.304-3.386A27 27 0 0 0 73.821 0h10.04l.57 4.372a7.6 7.6 0 0 0-1.236-.36q-.78-.173-2.11-.173h-2.588v7.644h.951q1.332 0 2.11-.056.781-.056 1.352-.17v4.257q-1.218-.19-3.728-.19h-.685v2.055q0 2.433.248 4.982.248 2.547.629 4.258zM90.704 27q-1.826 0-2.928-1.596-1.103-1.599-1.103-5.667V15.21q0-1.292-.097-2.717a43 43 0 0 0-.266-2.72q-.171-1.293-.437-2.167h5.098a21 21 0 0 0-.422 2.166 35 35 0 0 0-.285 2.72q-.093 1.426-.093 2.718v3.613q0 4.335 2.014 4.334 1.104 0 1.807-1.347.704-1.35.704-3.483V15.21q0-1.292-.096-2.717a42 42 0 0 0-.264-2.72q-.171-1.293-.437-2.167h5.095q-.226.874-.419 2.166a35 35 0 0 0-.285 2.72q-.093 1.426-.093 2.718v3.842q0 1.255.093 2.68.097 1.425.285 2.699.192 1.274.419 2.187h-4.98a6.2 6.2 0 0 0 .548-1.71q.134-.837.134-2.206v-.189h-.19q-.418 2.318-1.406 3.402Q92.11 27 90.704 27M101.199 26.619q.266-.914.437-2.188a42 42 0 0 0 .363-5.419V15.21q0-1.292-.096-2.717a44 44 0 0 0-.267-2.72q-.17-1.293-.437-2.166h5.02a7 7 0 0 0-.533 1.692q-.151.856-.151 2.224v.19h.189q.417-2.322 1.406-3.403.992-1.084 2.399-1.084 1.787 0 2.91 1.599 1.121 1.596 1.122 5.7v4.487q0 1.296.093 2.72.095 1.426.285 2.7.192 1.273.418 2.187h-5.132q.263-.914.434-2.188.174-1.273.267-2.698a41 41 0 0 0 .096-2.72V15.44q0-4.375-2.015-4.375-1.103 0-1.788 1.35-.685 1.352-.684 3.48v3.117q0 1.296.093 2.72.094 1.426.285 2.7a23 23 0 0 0 .421 2.187z"/></svg>
